X:142
T:A Good Tune. JNu.06
M:4/4
L:1/8
Q:120
S:James Nuttall MS,c1830,Rossendale,East Lancs.
R:March
O:England
A:East Lancashire
N:Indeed so..CGP
Z:vmp.Manchester Morris Men
K:Bb
F2|B3c d3e|(3fgf (3edc B2 (3fga|bfdB cBcd|egec BAGF|!
B3c d3e|(3fgf (3edc B2 f2|gbgc' a=efd|(3cdc (3BAG F2::!
f/e/d/c/|Bgfg dgfa|gfed edcB|Afef Gfef|fedc ecAc|!
(3dbb (3caa (3Bgg (3Aff|(3Gee (3Fdd (3Ecc (3DBB|dfdB FecA|B2d2B2:|]
